src/svgs/osm.svg

<?xml version="1.0" encoding="UTF-8" standalone="yes"?>
<svg viewBox="0 0 18 18">
  <path d="M2.5,2.5l1,4l-1,2l1,3l-1,3h1l4-4c-0.6-0.8-1-1.9-1-3c0-1.9,1.1-3.5,2.6-4.4L8.5,2.5l-3,1L2.5,2.5z"/>
  <path d="M15,11c-0.9,0.9-2.2,1.5-3.5,1.5c-1.1,0-2.2-0.4-3-1l-4,4h2l2-1l2,1l4-1l1-3L15,11z"/>
  <path d="M15,7.5c0,1.9-1.6,3.5-3.5,3.5S8,9.4,8,7.5S9.6,4,11.5,4S15,5.6,15,7.5"/>
</svg>

<?xml version="1.0" encoding="UTF-8" standalone="yes"?>
<svg viewBox="0 0 18 18" xmlns="http://www.w3.org/2000/svg">
  <path d="M2.5 2.5L3.5 6.5L2.5 8.5L3.5 11.5L2.5 14.5H3.5L7.5 10.5C6.9 9.7 6.5 8.6 6.5 7.5C6.5 5.6 7.6 4 9.1 3.1L8.5 2.5L5.5 3.5L2.5 2.5Z"/>
  <path d="M15 11C14.1 11.9 12.8 12.5 11.5 12.5C10.4 12.5 9.3 12.1 8.5 11.5L4.5 15.5H6.5L8.5 14.5L10.5 15.5L14.5 14.5L15.5 11.5L15 11Z"/>
  <path d="M11.5 11C13.4 11 15 9.4 15 7.5C15 5.6 13.4 4 11.5 4C9.6 4 8 5.6 8 7.5C8 9.4 9.6 11 11.5 11Z"/>
</svg>
